X: 03065
T: PERRON'S HORNPIPE
C: Bob McQuillen 4 Mar 77
B: Bob's Note Book 03 #65
R: hornpipe, reel
%D:1977
Z: 2020 John Chambers <jc:trillian.mit.edu>
M: C
L: 1/8
K: A
AF \
| ECEA cAGA | BEBc dBed | cdec fedc | BAGF EdcB |
| AEAB cAGA | BEBc dBed | cecA BdBG | A2c2 A2 :|
|: cd \
| eAce fedf | ecA2 A2AB | cAce afba | gbe2 e2ab |
| c'aba c'aba | babc' aece | fafc dfed | c2A2 A2 :|
%%begintext align
%% For Jack Perron, with
%% fondest Best Wishes always.
%%endtext

%%sep 1 1 500

%%sep 1 1 500

